demos/KANBAN/public/icons/Purchase bag.svg

<svg width="20" height="25" viewBox="0 0 20 25" fill="none" xmlns="http://www.w3.org/2000/svg">
<path d="M18.5051 5.47911C18.4689 5.15261 18.2147 4.89851 17.8883 4.89851H14.8767C14.8767 2.21341 12.6633 0 9.97815 0C7.29298 0 5.07964 2.17719 5.07964 4.89851H2.06804C1.74154 4.89851 1.48744 5.15262 1.45124 5.47911L0 21.6619V21.7345C0 23.5488 1.66921 25 3.70106 25H16.2554C18.2873 25 19.9565 23.5488 19.9565 21.7345V21.6619L18.5051 5.47911ZM9.97824 1.27007C11.9739 1.27007 13.6067 2.9028 13.6067 4.8985H6.34981C6.34981 2.90306 7.98254 1.27007 9.97824 1.27007ZM16.2554 23.7663H3.701C2.35854 23.7663 1.26995 22.8592 1.2338 21.7706L2.61266 6.16839H5.07986V8.34557C5.07986 8.67207 5.37017 8.96237 5.69666 8.96237C6.02317 8.96237 6.31347 8.67207 6.31347 8.34557V6.16839H13.6066V8.34557C13.6066 8.67207 13.8969 8.96237 14.2234 8.96237C14.5499 8.96237 14.8402 8.67207 14.8402 8.34557V6.16839H17.3074L18.6863 21.7706C18.6865 22.8592 17.5982 23.7663 16.2555 23.7663H16.2554Z" fill="#009ED8"/>
</svg>

<svg xmlns="http://www.w3.org/2000/svg" width="20" height="25" fill="none"><path fill="#009ED8" d="M18.505 5.48c-.036-.327-.29-.581-.617-.581h-3.011C14.877 2.213 12.663 0 9.978 0A4.901 4.901 0 0 0 5.08 4.899H2.068c-.326 0-.58.254-.617.58L0 21.662v.073C0 23.549 1.67 25 3.701 25h12.554c2.032 0 3.701-1.451 3.701-3.265v-.073l-1.45-16.183ZM9.978 1.27A3.64 3.64 0 0 1 13.607 4.9H6.35A3.64 3.64 0 0 1 9.978 1.27Zm6.277 22.496H3.701c-1.342 0-2.431-.907-2.467-1.995L2.613 6.168H5.08v2.178c0 .326.29.616.617.616.326 0 .616-.29.616-.616V6.168h7.294v2.178c0 .326.29.616.616.616.327 0 .617-.29.617-.616V6.168h2.467l1.38 15.603c0 1.088-1.089 1.995-2.431 1.995Z"/></svg>
